X: 10146
T: Dinah Smash
R: reel
M: 4/4
K: Gmajor
GA|BAGE DEGA|BdBG AAGA|BAGE DEGA|BdAF G2||
BA|GB{c}d2 GB{c}d2|GB{c}dB A2 BA|GB{c}d2 GB{c}d2|eAAA A2 BA|
GB{c}d2 GB{c}d2|GB{c}dB A2 GA|BAGE DEGA|BdAF G2||

